Newaita-dark/apps/24/focuswriter.svg

<svg height="24" viewBox="0 0 24 24" width="24" xmlns="http://www.w3.org/2000/svg" xmlns:xlink="http://www.w3.org/1999/xlink"><linearGradient id="a"><stop offset="0" stop-opacity=".313726"/><stop offset=".222222" stop-opacity=".27451"/><stop offset="1" stop-opacity="0"/></linearGradient><radialGradient id="b" cx="450.908936" cy="189.579361" gradientTransform="matrix(.00000013 -.0585994 -.105479 -.00000008 33.392364 47.696497)" gradientUnits="userSpaceOnUse" r="21.166656" xlink:href="#a"/><radialGradient id="c" cx="450.908936" cy="189.579361" gradientTransform="matrix(-.00000013 .0585994 .105479 .00000008 -9.577589 -5.645612)" gradientUnits="userSpaceOnUse" r="21.166656" xlink:href="#a"/><radialGradient id="d" cx="450.908936" cy="189.579361" gradientTransform="matrix(-.00000013 -.0585994 .105479 -.00000008 -9.577589 47.696497)" gradientUnits="userSpaceOnUse" r="21.166656" xlink:href="#a"/><radialGradient id="e" cx="450.908936" cy="189.579361" gradientTransform="matrix(.00000013 .0585994 -.105479 .00000008 33.392362 -5.645612)" gradientUnits="userSpaceOnUse" r="21.166656" xlink:href="#a"/><linearGradient id="f" gradientTransform="matrix(.01002 0 0 .0468795 9.34904 10.079088)" gradientUnits="userSpaceOnUse" x1="255.323059" x2="255.323044" y1="233.5" y2="254.666656"><stop offset="0" stop-opacity=".27451"/><stop offset="1" stop-opacity="0"/></linearGradient><linearGradient id="g"><stop offset="0" stop-color="#bdbdbd"/><stop offset="1" stop-color="#e0e0e0"/></linearGradient><linearGradient id="h" gradientUnits="userSpaceOnUse" x1="11.907393" x2="11.907393" xlink:href="#g" y1="2.17207774998" y2="21.02545025"/><linearGradient id="i" gradientUnits="userSpaceOnUse" x1="11.907399" x2="11.907399" y1="3.66049745612" y2="19.53703225"><stop offset="0" stop-color="#616161"/><stop offset="1" stop-color="#424242"/></linearGradient><linearGradient id="j" gradientUnits="userSpaceOnUse" x1="11.87468" x2="11.87468" xlink:href="#g" y1="15.86967214717" y2="6.93915139056"/><path d="m13.644531 21.027344h1.984375v-.996094h-1.984375zm0 0" fill="url(#b)"/><path d="m10.171875 21.027344h-1.984375v.992187h1.984375zm0 0" fill="url(#c)"/><path d="m10.171875 21.027344h-1.984375v-.996094h1.984375zm0 0" fill="url(#d)"/><path d="m13.644531 21.027344h1.984375v.992187h-1.984375zm0 0" fill="url(#e)"/><path d="m10.171875 20.777344h3.472656v1.242187h-3.472656zm0 0" fill="url(#f)"/><path d="m11.90625 2.171875c5.207031 0 9.429688 4.21875 9.429688 9.425781 0 5.207032-4.222657 9.429688-9.429688 9.429688-5.203125 0-9.425781-4.222656-9.425781-9.429688 0-5.207031 4.222656-9.425781 9.425781-9.425781zm0 0" fill="url(#h)"/><path d="m11.90625 21.027344c-5.222656 0-9.425781-4.207032-9.425781-9.429688 0-.03125 0-.058594 0-.089844.050781 5.179688 4.234375 9.332032 9.425781 9.332032s9.378906-4.152344 9.425781-9.332032c0 .03125.003907.058594.003907.089844 0 5.222656-4.207032 9.429688-9.429688 9.429688zm0 0" fill-opacity=".196078"/><path d="m11.90625 2.171875c-5.222656 0-9.425781 4.203125-9.425781 9.425781v.117188c.070312-5.160156 4.25-9.292969 9.425781-9.292969 5.179688 0 9.359375 4.132813 9.425781 9.292969 0-.039063.003907-.078125.003907-.117188 0-5.222656-4.207032-9.425781-9.429688-9.425781zm0 0" fill="#fff" fill-opacity=".392157"/><path d="m11.90625 3.660156c4.386719 0 7.9375 3.554688 7.9375 7.9375 0 4.386719-3.550781 7.9375-7.9375 7.9375-4.382812 0-7.9375-3.550781-7.9375-7.9375 0-4.382812 3.554688-7.9375 7.9375-7.9375zm0 0" fill="url(#i)"/><path d="m253.975747-168.671091c111.072726 0 201.147458 89.991406 201.147458 201.064133 0 111.072726-90.074732 201.147458-201.147458 201.147458-110.989402 0-201.064133-90.074732-201.064133-201.147458 0-111.072727 90.074731-201.064133 201.064133-201.064133zm0 0" fill="none" stroke="#333" stroke-linecap="round" stroke-width="3" transform="matrix(.0468795 0 0 .0468795 0 10.079087)"/><path d="m11.875 6.9375c-1.925781 0-3.472656 1.109375-3.472656 2.480469v6.203125c0 .371094 1.734375.371094 1.734375 0v-2.726563h2.480469c.621093 0 .621093-1.488281 0-1.488281h-2.480469v-1.242188c0-.6875.777343-1.242187 1.738281-1.242187.84375 0 1.542969.425781 1.703125.992187.09375.3125.613281.246094.902344.25.480469 0 .867187-.109374.867187-.25v-.496093c0-1.371094-1.550781-2.480469-3.472656-2.480469zm0 0" fill="url(#j)"/><path d="m11.875 7.007812c-1.925781 0-3.472656 1.109376-3.472656 2.480469v.125c0-1.375 1.546875-2.480469 3.472656-2.480469 1.921875 0 3.472656 1.105469 3.472656 2.480469v-.125c0-1.371093-1.550781-2.480469-3.472656-2.480469zm-1.738281 4.46875v.121094h2.480469c.292968 0 .449218.332032.464843.683594.019531-.390625-.136719-.804688-.464843-.804688zm0 0" fill="#fff" fill-opacity=".392157"/><path d="m11.875 8.921875c-.960938 0-1.738281.554687-1.738281 1.242187v.371094c0-.6875.777343-1.238281 1.738281-1.238281.84375 0 1.542969.421875 1.703125.992187.09375.308594.613281.246094.902344.246094.480469 0 .867187-.109375.867187-.246094v-.375c0 .140626-.386718.25-.867187.25-.289063-.003906-.808594.0625-.902344-.25-.160156-.566406-.859375-.992187-1.703125-.992187zm1.195312 3.414063c-.042968.300781-.195312.558593-.453124.558593h-2.480469v.371094h2.480469c.363281 0 .515624-.507813.453124-.929687zm-4.667968 3.285156v.371094c0 .375 1.734375.375 1.734375 0v-.371094c0 .371094-1.734375.371094-1.734375 0zm0 0" fill-opacity=".235294"/><path d="m11.875 6.867188c-.976562 0-1.859375.28125-2.5.738281-.640625.460937-1.042969 1.101562-1.042969 1.8125v6.203125c0 .074218.042969.136718.101563.179687s.132812.074219.21875.097657c.175781.050781.394531.074218.617187.074218.222657 0 .445313-.023437.617188-.074218.085937-.023438.160156-.054688.21875-.097657.058593-.042969.101562-.105469.101562-.179687v-2.65625h2.410157c.183593 0 .328124-.117188.410156-.269532.085937-.15625.128906-.351562.128906-.546874 0-.195313-.042969-.390626-.128906-.546876-.082032-.152343-.226563-.265624-.410156-.265624h-2.410157v-1.171876c0-.316406.179688-.605468.480469-.820312s.71875-.351562 1.1875-.351562c.820312 0 1.484375.417968 1.632812.941406v.003906c.03125.09375.097657.164062.175782.207031.078125.046875.167968.070313.265625.082031.1875.023438.390625.007813.53125.007813.246093 0 .464843-.027344.632812-.074219.082031-.023437.152344-.054687.207031-.089844.050782-.035156.097657-.085937.097657-.15625v-.496093c0-.710938-.402344-1.351563-1.042969-1.8125-.644531-.457031-1.523438-.738281-2.5-.738281zm0 .140624c.949219 0 1.804688.273438 2.417969.714844.613281.4375.984375 1.035156.984375 1.695313v.496093c0 .003907-.003906.015626-.039063.039063-.03125.023437-.089843.050781-.164062.070313-.148438.042968-.359375.070312-.59375.070312-.148438 0-.347657.011719-.515625-.007812-.082032-.011719-.15625-.03125-.210938-.0625-.054687-.03125-.089844-.070313-.109375-.128907v.003907c-.171875-.613282-.902343-1.046876-1.769531-1.046876-.496094 0-.941406.144532-1.269531.378907s-.539063.5625-.539063.933593v1.3125h2.550782c.128906 0 .21875.070313.289062.195313s.109375.300781.109375.476563c0 .175781-.039063.351562-.109375.476562s-.160156.199219-.289062.199219h-2.550782v2.796875c0 .019531-.007812.039062-.042968.066406-.039063.027344-.097657.054688-.175782.074219-.152344.046875-.367187.070312-.578125.070312-.210937 0-.425781-.023437-.578125-.070312-.074218-.019531-.136718-.046875-.171875-.074219-.039062-.027344-.046875-.046875-.046875-.066406v-6.203125c0-.660157.371094-1.257813.984375-1.695313.613281-.441406 1.46875-.714844 2.417969-.714844zm0 0" fill="#212121"/><path d="m3.972656 11.785156c-.003906.0625-.003906.125-.003906.1875 0 4.394532 3.539062 7.9375 7.9375 7.9375s7.9375-3.542968 7.9375-7.9375c0-.0625 0-.125 0-.1875-.097656 4.3125-3.601562 7.75-7.9375 7.75s-7.835938-3.4375-7.933594-7.75zm0 0" fill-opacity=".235294"/><path d="m11.90625 3.660156c-4.398438 0-7.9375 3.539063-7.9375 7.9375v.082032c.042969-4.359376 3.566406-7.859376 7.9375-7.859376s7.894531 3.5 7.9375 7.859376c0-.027344 0-.054688 0-.082032 0-4.398437-3.539062-7.9375-7.9375-7.9375zm0 0" fill="#fff" fill-opacity=".235294"/><path d="m253.975747-136.924123c93.574397 0 169.317164 75.826093 169.317164 169.317165 0 93.574397-75.742767 169.317164-169.317164 169.317164-93.491073 0-169.317165-75.742767-169.317165-169.317164 0-93.491072 75.826092-169.317165 169.317165-169.317165zm0 0" fill="none" stroke="#212121" stroke-linecap="round" stroke-width="3" transform="matrix(.0468795 0 0 .0468795 0 10.079087)"/></svg>

<?xml version="1.0" encoding="UTF-8"?>
<svg xmlns="http://www.w3.org/2000/svg" xmlns:xlink="http://www.w3.org/1999/xlink" width="24px" height="24px" viewBox="0 0 24 24" version="1.1">
<defs>
<radialGradient id="radial0" gradientUnits="userSpaceOnUse" cx="450.908936" cy="189.579361" fx="450.908936" fy="189.579361" r="21.166656" gradientTransform="matrix(0.000000130628,-0.0585994,-0.105479,-0.0000000761539,33.392364,47.696497)">
<stop offset="0" style="stop-color:rgb(0%,0%,0%);stop-opacity:0.313726;"/>
<stop offset="0.222222" style="stop-color:rgb(0%,0%,0%);stop-opacity:0.27451;"/>
<stop offset="1" style="stop-color:rgb(0%,0%,0%);stop-opacity:0;"/>
</radialGradient>
<radialGradient id="radial1" gradientUnits="userSpaceOnUse" cx="450.908936" cy="189.579361" fx="450.908936" fy="189.579361" r="21.166656" gradientTransform="matrix(-0.000000130628,0.0585994,0.105479,0.0000000761539,-9.577589,-5.645612)">
<stop offset="0" style="stop-color:rgb(0%,0%,0%);stop-opacity:0.313726;"/>
<stop offset="0.222222" style="stop-color:rgb(0%,0%,0%);stop-opacity:0.27451;"/>
<stop offset="1" style="stop-color:rgb(0%,0%,0%);stop-opacity:0;"/>
</radialGradient>
<radialGradient id="radial2" gradientUnits="userSpaceOnUse" cx="450.908936" cy="189.579361" fx="450.908936" fy="189.579361" r="21.166656" gradientTransform="matrix(-0.000000130628,-0.0585994,0.105479,-0.0000000761539,-9.577589,47.696497)">
<stop offset="0" style="stop-color:rgb(0%,0%,0%);stop-opacity:0.313726;"/>
<stop offset="0.222222" style="stop-color:rgb(0%,0%,0%);stop-opacity:0.27451;"/>
<stop offset="1" style="stop-color:rgb(0%,0%,0%);stop-opacity:0;"/>
</radialGradient>
<radialGradient id="radial3" gradientUnits="userSpaceOnUse" cx="450.908936" cy="189.579361" fx="450.908936" fy="189.579361" r="21.166656" gradientTransform="matrix(0.000000130628,0.0585994,-0.105479,0.0000000761539,33.392362,-5.645612)">
<stop offset="0" style="stop-color:rgb(0%,0%,0%);stop-opacity:0.313726;"/>
<stop offset="0.222222" style="stop-color:rgb(0%,0%,0%);stop-opacity:0.27451;"/>
<stop offset="1" style="stop-color:rgb(0%,0%,0%);stop-opacity:0;"/>
</radialGradient>
<linearGradient id="linear0" gradientUnits="userSpaceOnUse" x1="255.323059" y1="233.5" x2="255.323044" y2="254.666656" gradientTransform="matrix(0.01002,0,0,0.0468795,9.34904,10.079088)">
<stop offset="0" style="stop-color:rgb(0%,0%,0%);stop-opacity:0.27451;"/>
<stop offset="1" style="stop-color:rgb(0%,0%,0%);stop-opacity:0;"/>
</linearGradient>
<linearGradient id="linear1" gradientUnits="userSpaceOnUse" x1="254" y1="-168.666672" x2="254" y2="233.5" gradientTransform="matrix(0.0468795,0,0,0.0468795,0.000000123059,10.079087)">
<stop offset="0" style="stop-color:rgb(74.117649%,74.117649%,74.117649%);stop-opacity:1;"/>
<stop offset="1" style="stop-color:rgb(87.843138%,87.843138%,87.843138%);stop-opacity:1;"/>
</linearGradient>
<linearGradient id="linear2" gradientUnits="userSpaceOnUse" x1="254" y1="-168.666672" x2="254" y2="233.5" gradientTransform="matrix(0.0394775,0,0,0.0394775,1.880114,10.319036)">
<stop offset="0" style="stop-color:rgb(38.039216%,38.039216%,38.039216%);stop-opacity:1;"/>
<stop offset="1" style="stop-color:rgb(25.882354%,25.882354%,25.882354%);stop-opacity:1;"/>
</linearGradient>
<linearGradient id="linear3" gradientUnits="userSpaceOnUse" x1="940" y1="1295.118164" x2="940" y2="575.118103" gradientTransform="matrix(0.0124035,0,0,0.0124035,0.21539,-0.194326)">
<stop offset="0" style="stop-color:rgb(74.117649%,74.117649%,74.117649%);stop-opacity:1;"/>
<stop offset="1" style="stop-color:rgb(87.843138%,87.843138%,87.843138%);stop-opacity:1;"/>
</linearGradient>
</defs>
<g id="surface1">
<path style=" stroke:none;fill-rule:nonzero;fill:url(#radial0);" d="M 13.644531 21.027344 L 15.628906 21.027344 L 15.628906 20.03125 L 13.644531 20.03125 Z M 13.644531 21.027344 "/>
<path style=" stroke:none;fill-rule:nonzero;fill:url(#radial1);" d="M 10.171875 21.027344 L 8.1875 21.027344 L 8.1875 22.019531 L 10.171875 22.019531 Z M 10.171875 21.027344 "/>
<path style=" stroke:none;fill-rule:nonzero;fill:url(#radial2);" d="M 10.171875 21.027344 L 8.1875 21.027344 L 8.1875 20.03125 L 10.171875 20.03125 Z M 10.171875 21.027344 "/>
<path style=" stroke:none;fill-rule:nonzero;fill:url(#radial3);" d="M 13.644531 21.027344 L 15.628906 21.027344 L 15.628906 22.019531 L 13.644531 22.019531 Z M 13.644531 21.027344 "/>
<path style=" stroke:none;fill-rule:nonzero;fill:url(#linear0);" d="M 10.171875 20.777344 L 13.644531 20.777344 L 13.644531 22.019531 L 10.171875 22.019531 Z M 10.171875 20.777344 "/>
<path style=" stroke:none;fill-rule:nonzero;fill:url(#linear1);" d="M 11.90625 2.171875 C 17.113281 2.171875 21.335938 6.390625 21.335938 11.597656 C 21.335938 16.804688 17.113281 21.027344 11.90625 21.027344 C 6.703125 21.027344 2.480469 16.804688 2.480469 11.597656 C 2.480469 6.390625 6.703125 2.171875 11.90625 2.171875 Z M 11.90625 2.171875 "/>
<path style=" stroke:none;fill-rule:nonzero;fill:rgb(0%,0%,0%);fill-opacity:0.196078;" d="M 11.90625 21.027344 C 6.683594 21.027344 2.480469 16.820312 2.480469 11.597656 C 2.480469 11.566406 2.480469 11.539062 2.480469 11.507812 C 2.53125 16.6875 6.714844 20.839844 11.90625 20.839844 C 17.097656 20.839844 21.285156 16.6875 21.332031 11.507812 C 21.332031 11.539062 21.335938 11.566406 21.335938 11.597656 C 21.335938 16.820312 17.128906 21.027344 11.90625 21.027344 Z M 11.90625 21.027344 "/>
<path style=" stroke:none;fill-rule:nonzero;fill:rgb(100%,100%,100%);fill-opacity:0.392157;" d="M 11.90625 2.171875 C 6.683594 2.171875 2.480469 6.375 2.480469 11.597656 C 2.480469 11.636719 2.480469 11.675781 2.480469 11.714844 C 2.550781 6.554688 6.730469 2.421875 11.90625 2.421875 C 17.085938 2.421875 21.265625 6.554688 21.332031 11.714844 C 21.332031 11.675781 21.335938 11.636719 21.335938 11.597656 C 21.335938 6.375 17.128906 2.171875 11.90625 2.171875 Z M 11.90625 2.171875 "/>
<path style=" stroke:none;fill-rule:nonzero;fill:url(#linear2);" d="M 11.90625 3.660156 C 16.292969 3.660156 19.84375 7.214844 19.84375 11.597656 C 19.84375 15.984375 16.292969 19.535156 11.90625 19.535156 C 7.523438 19.535156 3.96875 15.984375 3.96875 11.597656 C 3.96875 7.214844 7.523438 3.660156 11.90625 3.660156 Z M 11.90625 3.660156 "/>
<path style="fill:none;stroke-width:3;stroke-linecap:round;stroke-linejoin:miter;stroke:rgb(20%,20%,20%);stroke-opacity:1;stroke-miterlimit:4;" d="M 253.975747 -168.671091 C 365.048473 -168.671091 455.123205 -78.679685 455.123205 32.393042 C 455.123205 143.465768 365.048473 233.5405 253.975747 233.5405 C 142.986345 233.5405 52.911614 143.465768 52.911614 32.393042 C 52.911614 -78.679685 142.986345 -168.671091 253.975747 -168.671091 Z M 253.975747 -168.671091 " transform="matrix(0.0468795,0,0,0.0468795,0,10.079087)"/>
<path style=" stroke:none;fill-rule:nonzero;fill:url(#linear3);" d="M 11.875 6.9375 C 9.949219 6.9375 8.402344 8.046875 8.402344 9.417969 L 8.402344 15.621094 C 8.402344 15.992188 10.136719 15.992188 10.136719 15.621094 L 10.136719 12.894531 L 12.617188 12.894531 C 13.238281 12.894531 13.238281 11.40625 12.617188 11.40625 L 10.136719 11.40625 L 10.136719 10.164062 C 10.136719 9.476562 10.914062 8.921875 11.875 8.921875 C 12.71875 8.921875 13.417969 9.347656 13.578125 9.914062 C 13.671875 10.226562 14.191406 10.160156 14.480469 10.164062 C 14.960938 10.164062 15.347656 10.054688 15.347656 9.914062 L 15.347656 9.417969 C 15.347656 8.046875 13.796875 6.9375 11.875 6.9375 Z M 11.875 6.9375 "/>
<path style=" stroke:none;fill-rule:nonzero;fill:rgb(100%,100%,100%);fill-opacity:0.392157;" d="M 11.875 7.007812 C 9.949219 7.007812 8.402344 8.117188 8.402344 9.488281 L 8.402344 9.613281 C 8.402344 8.238281 9.949219 7.132812 11.875 7.132812 C 13.796875 7.132812 15.347656 8.238281 15.347656 9.613281 L 15.347656 9.488281 C 15.347656 8.117188 13.796875 7.007812 11.875 7.007812 Z M 10.136719 11.476562 L 10.136719 11.597656 L 12.617188 11.597656 C 12.910156 11.597656 13.066406 11.929688 13.082031 12.28125 C 13.101562 11.890625 12.945312 11.476562 12.617188 11.476562 Z M 10.136719 11.476562 "/>
<path style=" stroke:none;fill-rule:nonzero;fill:rgb(0%,0%,0%);fill-opacity:0.235294;" d="M 11.875 8.921875 C 10.914062 8.921875 10.136719 9.476562 10.136719 10.164062 L 10.136719 10.535156 C 10.136719 9.847656 10.914062 9.296875 11.875 9.296875 C 12.71875 9.296875 13.417969 9.71875 13.578125 10.289062 C 13.671875 10.597656 14.191406 10.535156 14.480469 10.535156 C 14.960938 10.535156 15.347656 10.425781 15.347656 10.289062 L 15.347656 9.914062 C 15.347656 10.054688 14.960938 10.164062 14.480469 10.164062 C 14.191406 10.160156 13.671875 10.226562 13.578125 9.914062 C 13.417969 9.347656 12.71875 8.921875 11.875 8.921875 Z M 13.070312 12.335938 C 13.027344 12.636719 12.875 12.894531 12.617188 12.894531 L 10.136719 12.894531 L 10.136719 13.265625 L 12.617188 13.265625 C 12.980469 13.265625 13.132812 12.757812 13.070312 12.335938 Z M 8.402344 15.621094 L 8.402344 15.992188 C 8.402344 16.367188 10.136719 16.367188 10.136719 15.992188 L 10.136719 15.621094 C 10.136719 15.992188 8.402344 15.992188 8.402344 15.621094 Z M 8.402344 15.621094 "/>
<path style=" stroke:none;fill-rule:nonzero;fill:rgb(12.941177%,12.941177%,12.941177%);fill-opacity:1;" d="M 11.875 6.867188 C 10.898438 6.867188 10.015625 7.148438 9.375 7.605469 C 8.734375 8.066406 8.332031 8.707031 8.332031 9.417969 L 8.332031 15.621094 C 8.332031 15.695312 8.375 15.757812 8.433594 15.800781 C 8.492188 15.84375 8.566406 15.875 8.652344 15.898438 C 8.828125 15.949219 9.046875 15.972656 9.269531 15.972656 C 9.492188 15.972656 9.714844 15.949219 9.886719 15.898438 C 9.972656 15.875 10.046875 15.84375 10.105469 15.800781 C 10.164062 15.757812 10.207031 15.695312 10.207031 15.621094 L 10.207031 12.964844 L 12.617188 12.964844 C 12.800781 12.964844 12.945312 12.847656 13.027344 12.695312 C 13.113281 12.539062 13.15625 12.34375 13.15625 12.148438 C 13.15625 11.953125 13.113281 11.757812 13.027344 11.601562 C 12.945312 11.449219 12.800781 11.335938 12.617188 11.335938 L 10.207031 11.335938 L 10.207031 10.164062 C 10.207031 9.847656 10.386719 9.558594 10.6875 9.34375 C 10.988281 9.128906 11.40625 8.992188 11.875 8.992188 C 12.695312 8.992188 13.359375 9.410156 13.507812 9.933594 L 13.507812 9.9375 C 13.539062 10.03125 13.605469 10.101562 13.683594 10.144531 C 13.761719 10.191406 13.851562 10.214844 13.949219 10.226562 C 14.136719 10.25 14.339844 10.234375 14.480469 10.234375 C 14.726562 10.234375 14.945312 10.207031 15.113281 10.160156 C 15.195312 10.136719 15.265625 10.105469 15.320312 10.070312 C 15.371094 10.035156 15.417969 9.984375 15.417969 9.914062 L 15.417969 9.417969 C 15.417969 8.707031 15.015625 8.066406 14.375 7.605469 C 13.730469 7.148438 12.851562 6.867188 11.875 6.867188 Z M 11.875 7.007812 C 12.824219 7.007812 13.679688 7.28125 14.292969 7.722656 C 14.90625 8.160156 15.277344 8.757812 15.277344 9.417969 L 15.277344 9.914062 C 15.277344 9.917969 15.273438 9.929688 15.238281 9.953125 C 15.207031 9.976562 15.148438 10.003906 15.074219 10.023438 C 14.925781 10.066406 14.714844 10.09375 14.480469 10.09375 C 14.332031 10.09375 14.132812 10.105469 13.964844 10.085938 C 13.882812 10.074219 13.808594 10.054688 13.753906 10.023438 C 13.699219 9.992188 13.664062 9.953125 13.644531 9.894531 L 13.644531 9.898438 C 13.472656 9.285156 12.742188 8.851562 11.875 8.851562 C 11.378906 8.851562 10.933594 8.996094 10.605469 9.230469 C 10.277344 9.464844 10.066406 9.792969 10.066406 10.164062 L 10.066406 11.476562 L 12.617188 11.476562 C 12.746094 11.476562 12.835938 11.546875 12.90625 11.671875 C 12.976562 11.796875 13.015625 11.972656 13.015625 12.148438 C 13.015625 12.324219 12.976562 12.5 12.90625 12.625 C 12.835938 12.75 12.746094 12.824219 12.617188 12.824219 L 10.066406 12.824219 L 10.066406 15.621094 C 10.066406 15.640625 10.058594 15.660156 10.023438 15.6875 C 9.984375 15.714844 9.925781 15.742188 9.847656 15.761719 C 9.695312 15.808594 9.480469 15.832031 9.269531 15.832031 C 9.058594 15.832031 8.84375 15.808594 8.691406 15.761719 C 8.617188 15.742188 8.554688 15.714844 8.519531 15.6875 C 8.480469 15.660156 8.472656 15.640625 8.472656 15.621094 L 8.472656 9.417969 C 8.472656 8.757812 8.84375 8.160156 9.457031 7.722656 C 10.070312 7.28125 10.925781 7.007812 11.875 7.007812 Z M 11.875 7.007812 "/>
<path style=" stroke:none;fill-rule:nonzero;fill:rgb(0%,0%,0%);fill-opacity:0.235294;" d="M 3.972656 11.785156 C 3.96875 11.847656 3.96875 11.910156 3.96875 11.972656 C 3.96875 16.367188 7.507812 19.910156 11.90625 19.910156 C 16.304688 19.910156 19.84375 16.367188 19.84375 11.972656 C 19.84375 11.910156 19.84375 11.847656 19.84375 11.785156 C 19.746094 16.097656 16.242188 19.535156 11.90625 19.535156 C 7.570312 19.535156 4.070312 16.097656 3.972656 11.785156 Z M 3.972656 11.785156 "/>
<path style=" stroke:none;fill-rule:nonzero;fill:rgb(100%,100%,100%);fill-opacity:0.235294;" d="M 11.90625 3.660156 C 7.507812 3.660156 3.96875 7.199219 3.96875 11.597656 C 3.96875 11.625 3.96875 11.652344 3.96875 11.679688 C 4.011719 7.320312 7.535156 3.820312 11.90625 3.820312 C 16.277344 3.820312 19.800781 7.320312 19.84375 11.679688 C 19.84375 11.652344 19.84375 11.625 19.84375 11.597656 C 19.84375 7.199219 16.304688 3.660156 11.90625 3.660156 Z M 11.90625 3.660156 "/>
<path style="fill:none;stroke-width:3;stroke-linecap:round;stroke-linejoin:miter;stroke:rgb(12.941177%,12.941177%,12.941177%);stroke-opacity:1;stroke-miterlimit:4;" d="M 253.975747 -136.924123 C 347.550144 -136.924123 423.292911 -61.09803 423.292911 32.393042 C 423.292911 125.967439 347.550144 201.710206 253.975747 201.710206 C 160.484674 201.710206 84.658582 125.967439 84.658582 32.393042 C 84.658582 -61.09803 160.484674 -136.924123 253.975747 -136.924123 Z M 253.975747 -136.924123 " transform="matrix(0.0468795,0,0,0.0468795,0,10.079087)"/>
</g>
</svg>
